X: 28428
T: Mullanes Of Clerihan, The
R: jig
M: 6/8
K: Gmajor
|:D|BAB GAB|AFE DFA|BAB dBG|GAB A2 D|
BAB GAB|AFE DFA|BAB cAF|AGF G2:|
B/c/|dBG DGB|cAF DFA|BAG dBG|GAB A2c|
dBG DGB|cAF DFA|BAG dBG|DBA GBc|
dBG DGB|cAF DFA|BAG dBG|GAB A2 D|
BAB GAB|AFE DFA|BAB cAF|AGF G2||

